X:1
T:Dolcissimo Tesoro
T:Dolcissimo Tesoro
T:Claudio Saracini
T:Source : Le secondo Musische per cantar e sonar---Venetia---A.Vincenti---1620. Editor : André Vierendeels (30/11/15).
T:Notes : Original clefs : C1, F4 Editorial accidentals above the staff Figures above tha BC are notated in original print
C:Claudio Saracini
%%score 1 2
L:1/8
Q:1/4=78
M:4/4
K:C
V:1 treble nm="Soprano" snm="S"
V:2 bass nm="BC" snm="BC"
V:1
 B4 ^G3 G | ^G6 A2 | B4 B4 | z2 d2 AAAA | A8- | A4 A4 | z BBB d4- | d2 ^G2 G4 | ^G4 z2 AB/c/ | %9
w: Dol- cis- si-|mo Te-|so- ro,|Ci- bo del- la mia|vi-|* ta,|dun- que da tè|_ cor mi-|o par- * *|
 F3 E E4- | E8 | D8 :: F4 GADE | ^C4 C4 | c4 deAB | ^G4 G4 | c4 B2 A2 | G4 G4 | z A _B4 B2 | %19
w: to'e non mo-||ro.-|Per su- bi- ta par-|ti- ta,|per su- bi- ta par-|ti- ta,|fia che ti|la- sci|hor pri- a|
"^-natural" z BBB c2 c2 | d3 G G4 | D3 D C4 | e3 A A4 | E3 E D4 | F6 ED | D4 C4 | _B6 AG | A8 | %28
w: che que- sto si- a|par- te lun-|ge da me,|par- te lun-|ge da me,|l'a- ni- ma|mi- a,|l'a- ni- ma|mi-|
 G8 :| %29
w: a.|
V:2
 G,4 E,4- |"^#" E,4 E,2 D,2 | G,,8 | D,8 | A,E, F,C, D,A,, _B,,F,, | A,,E,, D,,E,, F,,2 A,,2 | %6
 G,,8 |"^#" E,8 | E,4 A,,4- | A,,4 A,,4- | A,,8 | D,8 :: D,4 C,A,,_B,,G,, |"^#" A,,4 A,,4 | %14
 A,4 G,E,F,D, |"^#" E,4 E,4 | F,,4 G,,2 A,,2 | C,4 C,4 | F,2 _E,4 E,2 |"^-natural" G,,4 C,4 | %20
 B,,8- | B,,4 C,4 | ^C,8- | C,4 D,4 | D,4 A,,4- | A,,4 D,,4 |"^b" G,,4 D,4- | D,8 | G,,8 :| %29

